X:3
T:Cookies and Cream
C:Mike Mahar
L:1/8
Q:1/4=140
M:2/2
K:A
|: ABcd e2e2 | f2d2 e2c2 | ABcd e2fe | dcB2 A4 |
 ABcd e2e2 | f2d2 e2c2 | ABcd e2fe | \
dcB2 A4 :|
|: a2=g2 fed2 | cdef e2c2 | a2=g2 fed2 | cdcB A4 |
a2=g2 fed2 | cdef e2c2 | a2=g2 fed2 | ABcB A4 :|

